src/social-windows-outline.svg

<?xml version="1.0" encoding="utf-8"?>
<!-- Generated by IcoMoon.io -->
<!DOCTYPE svg PUBLIC "-//W3C//DTD SVG 1.1//EN" "http://www.w3.org/Graphics/SVG/1.1/DTD/svg11.dtd">
<svg version="1.1" xmlns="http://www.w3.org/2000/svg" xmlns:xlink="http://www.w3.org/1999/xlink" width="512" height="512" viewBox="0 0 512 512">
<path fill="#000000" d="M464 281v180.5l-216-31.3v-149.2h216zM480 265h-248v179l248 36v-215z"></path>
<path fill="#000000" d="M200 281v142.2l-152-22v-120.2h152zM216 265h-184v150l184 26.7v-176.7z"></path>
<path fill="#000000" d="M464 50v183h-216v-151.7l216-30.9zM480 32l-248 35.4v181.6h248v-217z"></path>
<path fill="#000000" d="M200 88v145h-152v-123.1l152-21.7zM216 69.7l-184 26.3v153h184v-179.3z"></path>
</svg>

<?xml version="1.0" encoding="utf-8"?>
<!-- Generator: Adobe Illustrator 16.2.1, SVG Export Plug-In . SVG Version: 6.00 Build 0)  -->
<!DOCTYPE svg PUBLIC "-//W3C//DTD SVG 1.1//EN" "http://www.w3.org/Graphics/SVG/1.1/DTD/svg11.dtd">
<svg version="1.1" id="Layer_1" xmlns="http://www.w3.org/2000/svg" xmlns:xlink="http://www.w3.org/1999/xlink" x="0px" y="0px"
	 width="512px" height="512px" viewBox="0 0 512 512" style="enable-background:new 0 0 512 512;" xml:space="preserve">
<style type="text/css">
<![CDATA[
	.st0{fill:#010101;}
]]>
</style>
<g>
	<path class="st0" d="M464,281v180.5l-216-31.3V281H464 M480,265H232v179l248,36V265L480,265z"/>
	<path class="st0" d="M200,281v142.2L48,401.2V281H200 M216,265H32v150l184,26.7V265L216,265z"/>
	<path class="st0" d="M464,50v183H248V81.3l216-30.9 M480,32L232,67.4V249h248V32L480,32z"/>
	<path class="st0" d="M200,88v145H48V109.9l152-21.7 M216,69.7L32,96v153h184V69.7L216,69.7z"/>
</g>
</svg>
